Origami/64x64/apps/cmyktool.svg

<svg width="64" height="64" version="1" xmlns="http://www.w3.org/2000/svg">
 <path d="m31.999128 3.0000592c-1.571498 0-3.144046 0.5857444-4.31878 1.7604496l-23.919924 23.922591c-2.3494679 2.349408-2.346135 6.281166 0.00342 8.630576l23.919932 23.92259c2.349468 2.349412 6.28473 2.352744 8.634198 0.0034l23.919926-23.92256c2.349466-2.34941 2.349468-6.284534 0-8.633944l-23.919988-23.922653c-1.174734-1.174705-2.747284-1.7604496-4.318784-1.7604496z" style="opacity:.2"/>
 <path d="m31.999128 2.0000276c-1.571498 0-3.144046 0.5857444-4.31878 1.7604496l-23.919924 23.922591c-2.3494679 2.349408-2.346135 6.281166 0.00342 8.630576l23.919932 23.92259c2.349468 2.349412 6.28473 2.352744 8.634198 0.0034l23.919926-23.92256c2.349466-2.34941 2.349468-6.284534 0-8.633944l-23.919988-23.922653c-1.174734-1.174705-2.747284-1.7604496-4.318784-1.7604496z" style="fill:#696853"/>
 <path d="m32 7.9994503c-0.576213 0-1.15325 0.2157605-1.583984 0.6464844l-8.771485 8.7714843c-0.861471 0.861446-0.859597 2.302614 2e-3 3.164062l8.771485 8.771485c0.86147 0.861448 2.304547 0.863322 3.166015 2e-3l8.769532-8.773438c0.861468-0.861448 0.861468-2.302615 0-3.164062l-8.769579-8.7715313c-0.430716-0.4307044-1.00777-0.6464844-1.583984-0.6464844zm-13 14c-0.575771 3.15e-4 -1.151307 0.215711-1.582031 0.646484l-8.7714846 8.771485c-0.861446 0.861465-0.8632816 2.304546-0.00195 3.166015l8.7714848 8.769532c0.861447 0.861468 2.304569 0.861468 3.166015 0l8.771485-8.769532c0.4307188-0.430732 0.6464808-1.007767 0.6464808-1.583984 0-0.576212-0.21575-1.153253-0.646484-1.583984l-8.771485-8.769532c-0.430723-0.430734-1.00626-0.646799-1.582031-0.646484zm26 0c-0.575771 3.15e-4 -1.151307 0.215711-1.582031 0.646484l-8.771485 8.771485c-0.861445 0.861466-0.863322 2.304546-2e-3 3.166015l8.771485 8.769532c0.861447 0.861468 2.304567 0.861468 3.166015 0l8.771485-8.769532c0.430748-0.430711 0.646531-1.007768 0.646531-1.583984 0-0.576213-0.215753-1.153252-0.646484-1.583984l-8.771485-8.769532c-0.430722-0.430733-1.00626-0.646799-1.582031-0.646484zm-13 14c-0.576213 0-1.15325 0.215754-1.583984 0.646484l-8.771485 8.771485c-0.861471 0.861444-0.859597 2.302611 2e-3 3.164062l8.771485 8.771485c0.86147 0.861448 2.304547 0.863322 3.166015 2e-3l8.769532-8.773438c0.861468-0.861448 0.861468-2.302616 0-3.164062l-8.769579-8.771532c-0.430734-0.430725-1.007766-0.646484-1.583984-0.646484z" style="opacity:.2"/>
 <path d="m31.999659 7.0000694c-0.576213 0-1.152814 0.214773-1.583548 0.6454969l-8.770619 8.7715967c-0.861471 0.861446-0.86025 2.303088 0.0013 3.164536l8.770617 8.771594c0.86147 0.861448 2.304396 0.862669 3.165864 0.0013l8.770617-8.771594c0.861468-0.861448 0.861468-2.304323 0-3.16577l-8.7707-8.7716827c-0.430716-0.4307044-1.007317-0.6454769-1.583531-0.6454769z" style="fill:#3fa7e2"/>
 <path d="m31.999659 35.000071c-0.576213 0-1.152814 0.214764-1.583548 0.645494l-8.770619 8.771598c-0.861471 0.861444-0.86025 2.303085 0.0013 3.164536l8.770617 8.771594c0.86147 0.861448 2.304396 0.862669 3.165864 0.0013l8.770617-8.771594c0.861468-0.861448 0.861468-2.304324 0-3.16577l-8.77065-8.771632c-0.430734-0.430725-1.007332-0.645498-1.58355-0.645498z" style="fill:#3f3f3f"/>
 <path d="m55.999887 31.999655c0-0.576213-0.214763-1.152812-0.645494-1.583544l-8.77158-8.7706c-0.861445-0.861467-2.303082-0.860246-3.16453 0.0013l-8.771577 8.770602c-0.861445 0.861466-0.862669 2.304388-0.0013 3.165857l8.771575 8.770598c0.861447 0.861468 2.304321 0.861468 3.165769 0l8.771687-8.770708c0.430701-0.430711 0.64547-1.007309 0.64547-1.583525z" style="fill:#f1ca42"/>
 <path d="m29.999892 31.999653c0-0.576212-0.214763-1.152812-0.645497-1.583543l-8.771575-8.7706c-0.861446-0.861468-2.303084-0.860247-3.164532 0.0013l-8.7715766 8.770602c-0.861446 0.861465-0.8626685 2.30439-0.00134 3.165859l8.7715766 8.770598c0.861447 0.861468 2.30432 0.861468 3.165766 0l8.771638-8.770661c0.430722-0.430732 0.645494-1.007331 0.645494-1.583548z" style="fill:#ea72bb"/>
 <path d="m32 7c-0.576213 0-1.15325 0.2157605-1.583984 0.6464844l-8.771485 8.7714846c-0.555622 0.555606-0.745655 1.351282-0.583984 2.078125 0.089201-0.397205 0.280136-0.774285 0.583984-1.078125l8.771485-8.7714846c0.430734-0.4307239 1.007771-0.6464844 1.583984-0.6464844 0.576214 0 1.153268 0.21578 1.583984 0.6464844l8.769532 8.7714846c0.304915 0.304908 0.496871 0.683281 0.585937 1.082031 0.162571-0.727826-0.029385-1.525492-0.585937-2.082031l-8.769532-8.7714846c-0.430716-0.4307044-1.00777-0.6464844-1.583984-0.6464844zm-13 14c-0.575771 3.15e-4 -1.151307 0.215711-1.582031 0.646484l-8.7714846 8.771485c-0.5571401 0.557152-0.7488837 1.356905-0.5859375 2.085937 0.0889783-0.400413 0.2800977-0.780091 0.5859375-1.085937l8.7714846-8.771485c0.430724-0.430773 1.00626-0.646169 1.582031-0.646484s1.151308 0.21575 1.582031 0.646484l8.771485 8.769532c0.304993 0.304991 0.496791 0.684517 0.585937 1.083984 0.036799-0.164787 0.060547-0.331685 0.060547-0.5 0-0.576212-0.21575-1.153253-0.646484-1.583984l-8.771485-8.769532c-0.430723-0.430734-1.00626-0.646799-1.582031-0.646484zm26 0c-0.575771 3.15e-4 -1.151307 0.215711-1.582031 0.646484l-8.771485 8.771485c-0.557139 0.557153-0.748882 1.356906-0.585937 2.085937 0.088985-0.400413 0.280098-0.78009 0.585937-1.085937l8.771485-8.771485c0.430724-0.430773 1.00626-0.646169 1.582031-0.646484s1.151309 0.215751 1.582031 0.646484l8.771485 8.769532c0.304991 0.304992 0.49679 0.684517 0.585937 1.083984 0.036801-0.164789 0.060547-0.331686 0.060547-0.5 0-0.576213-0.215753-1.153252-0.646484-1.583984l-8.771485-8.769532c-0.430722-0.430733-1.00626-0.646799-1.582031-0.646484zm-13 14c-0.576213 0-1.15325 0.215754-1.583984 0.646484l-8.771485 8.771485c-0.555622 0.555605-0.745655 1.351282-0.583984 2.078125 0.089201-0.397205 0.280136-0.774286 0.583984-1.078125l8.771485-8.771485c0.430734-0.43073 1.007771-0.646484 1.583984-0.646484 0.576218 0 1.15325 0.215759 1.583984 0.646484l8.769532 8.771485c0.304915 0.304907 0.496871 0.683281 0.585937 1.082031 0.162571-0.727826-0.029385-1.525493-0.585937-2.082031l-8.769532-8.771485c-0.430734-0.430725-1.007766-0.646484-1.583984-0.646484z" style="fill:#ffffff;opacity:.1"/>
 <path d="M 32 2 C 30.428502 2 28.854421 2.5850604 27.679688 3.7597656 L 3.7597656 27.683594 C 2.4601409 28.983185 1.884343 30.765757 2.0234375 32.498047 C 2.1343066 31.098695 2.7099224 29.73341 3.7597656 28.683594 L 27.679688 4.7597656 C 28.854421 3.5850604 30.428502 3 32 3 C 33.5715 3 35.143625 3.5850606 36.318359 4.7597656 L 60.238281 28.683594 C 61.288124 29.733411 61.86495 31.099904 61.976562 32.5 C 62.114731 30.76679 61.537906 28.983186 60.238281 27.683594 L 36.318359 3.7597656 C 35.143625 2.5850606 33.5715 2 32 2 z" style="fill:#ffffff;opacity:.1"/>
</svg>

<svg xmlns="http://www.w3.org/2000/svg" width="64" height="64" version="1">
 <path style="opacity:0.2" d="m 31.999128,3.0000592 c -1.571498,0 -3.144046,0.5857444 -4.31878,1.7604496 L 3.7604236,28.6831 c -2.3494679,2.349408 -2.346135,6.281166 0.00342,8.630576 l 23.9199324,23.92259 c 2.349468,2.349412 6.28473,2.352744 8.634198,0.0034 L 60.2379,37.317106 c 2.349466,-2.34941 2.349468,-6.284534 0,-8.633944 L 36.317912,4.7605088 C 35.143178,3.5858038 33.570628,3.0000592 31.999128,3.0000592 Z"/>
 <path style="fill:#696853" d="m 31.999128,2.0000276 c -1.571498,0 -3.144046,0.5857444 -4.31878,1.7604496 L 3.7604236,27.683068 c -2.3494679,2.349408 -2.346135,6.281166 0.00342,8.630576 l 23.9199324,23.92259 c 2.349468,2.349412 6.28473,2.352744 8.634198,0.0034 L 60.2379,36.317074 c 2.349466,-2.34941 2.349468,-6.284534 0,-8.633944 L 36.317912,3.7604772 C 35.143178,2.5857722 33.570628,2.0000276 31.999128,2.0000276 Z"/>
 <path style="opacity:0.2" d="m 32,7.9994503 c -0.576213,0 -1.15325,0.2157605 -1.583984,0.6464844 l -8.771485,8.7714843 c -0.861471,0.861446 -0.859597,2.302614 0.002,3.164062 l 8.771485,8.771485 c 0.86147,0.861448 2.304547,0.863322 3.166015,0.002 l 8.769532,-8.773438 c 0.861468,-0.861448 0.861468,-2.302615 0,-3.164062 L 33.583984,8.6459347 C 33.153268,8.2152303 32.576214,7.9994503 32,7.9994503 Z M 19,21.99945 c -0.575771,3.15e-4 -1.151307,0.215711 -1.582031,0.646484 l -8.7714846,8.771485 c -0.861446,0.861465 -0.8632816,2.304546 -0.00195,3.166015 l 8.7714848,8.769532 c 0.861447,0.861468 2.304569,0.861468 3.166015,0 l 8.771485,-8.769532 C 29.784238,34.152702 30,33.575667 30,32.99945 30,32.423238 29.78425,31.846197 29.353516,31.415466 L 20.582031,22.645934 C 20.151308,22.2152 19.575771,21.999135 19,21.99945 Z m 26,0 c -0.575771,3.15e-4 -1.151307,0.215711 -1.582031,0.646484 l -8.771485,8.771485 c -0.861445,0.861466 -0.863322,2.304546 -0.002,3.166015 l 8.771485,8.769532 c 0.861447,0.861468 2.304567,0.861468 3.166015,0 l 8.771485,-8.769532 C 55.784217,34.152723 56,33.575666 56,32.99945 56,32.423237 55.784247,31.846198 55.353516,31.415466 L 46.582031,22.645934 C 46.151309,22.215201 45.575771,21.999135 45,21.99945 Z m -13,14 c -0.576213,0 -1.15325,0.215754 -1.583984,0.646484 l -8.771485,8.771485 c -0.861471,0.861444 -0.859597,2.302611 0.002,3.164062 l 8.771485,8.771485 c 0.86147,0.861448 2.304547,0.863322 3.166015,0.002 l 8.769532,-8.773438 c 0.861468,-0.861448 0.861468,-2.302616 0,-3.164062 L 33.583984,36.645934 C 33.15325,36.215209 32.576218,35.99945 32,35.99945 Z"/>
 <path style="fill:#3fa7e2" d="m 31.999659,7.0000694 c -0.576213,0 -1.152814,0.214773 -1.583548,0.6454969 l -8.770619,8.7715967 c -0.861471,0.861446 -0.86025,2.303088 0.0013,3.164536 l 8.770617,8.771594 c 0.86147,0.861448 2.304396,0.862669 3.165864,0.0013 l 8.770617,-8.771594 c 0.861468,-0.861448 0.861468,-2.304323 0,-3.16577 L 33.58319,7.6455463 C 33.152474,7.2148419 32.575873,7.0000694 31.999659,7.0000694 Z"/>
 <path style="fill:#3f3f3f" d="m 31.999659,35.000071 c -0.576213,0 -1.152814,0.214764 -1.583548,0.645494 l -8.770619,8.771598 c -0.861471,0.861444 -0.86025,2.303085 0.0013,3.164536 l 8.770617,8.771594 c 0.86147,0.861448 2.304396,0.862669 3.165864,0.0013 l 8.770617,-8.771594 c 0.861468,-0.861448 0.861468,-2.304324 0,-3.16577 l -8.77065,-8.771632 c -0.430734,-0.430725 -1.007332,-0.645498 -1.58355,-0.645498 z"/>
 <path style="fill:#f1ca42" d="m 55.999887,31.999655 c 0,-0.576213 -0.214763,-1.152812 -0.645494,-1.583544 l -8.77158,-8.7706 c -0.861445,-0.861467 -2.303082,-0.860246 -3.16453,0.0013 l -8.771577,8.770602 c -0.861445,0.861466 -0.862669,2.304388 -0.0013,3.165857 l 8.771575,8.770598 c 0.861447,0.861468 2.304321,0.861468 3.165769,0 l 8.771687,-8.770708 c 0.430701,-0.430711 0.64547,-1.007309 0.64547,-1.583525 z"/>
 <path style="fill:#ea72bb" d="m 29.999892,31.999653 c 0,-0.576212 -0.214763,-1.152812 -0.645497,-1.583543 l -8.771575,-8.7706 c -0.861446,-0.861468 -2.303084,-0.860247 -3.164532,0.0013 l -8.7715766,8.770602 c -0.861446,0.861465 -0.8626685,2.30439 -0.00134,3.165859 l 8.7715766,8.770598 c 0.861447,0.861468 2.30432,0.861468 3.165766,0 l 8.771638,-8.770661 c 0.430722,-0.430732 0.645494,-1.007331 0.645494,-1.583548 z"/>
 <path style="fill:#ffffff;opacity:0.1" d="M 32 7 C 31.423787 7 30.84675 7.2157605 30.416016 7.6464844 L 21.644531 16.417969 C 21.088909 16.973575 20.898876 17.769251 21.060547 18.496094 C 21.149748 18.098889 21.340683 17.721809 21.644531 17.417969 L 30.416016 8.6464844 C 30.84675 8.2157605 31.423787 8 32 8 C 32.576214 8 33.153268 8.21578 33.583984 8.6464844 L 42.353516 17.417969 C 42.658431 17.722877 42.850387 18.10125 42.939453 18.5 C 43.102024 17.772174 42.910068 16.974508 42.353516 16.417969 L 33.583984 7.6464844 C 33.153268 7.21578 32.576214 7 32 7 z M 19 21 C 18.424229 21.000315 17.848693 21.215711 17.417969 21.646484 L 8.6464844 30.417969 C 8.0893443 30.975121 7.8976007 31.774874 8.0605469 32.503906 C 8.1495252 32.103493 8.3406446 31.723815 8.6464844 31.417969 L 17.417969 22.646484 C 17.848693 22.215711 18.424229 22.000315 19 22 C 19.575771 21.999685 20.151308 22.21575 20.582031 22.646484 L 29.353516 31.416016 C 29.658509 31.721007 29.850307 32.100533 29.939453 32.5 C 29.976252 32.335213 30 32.168315 30 32 C 30 31.423788 29.78425 30.846747 29.353516 30.416016 L 20.582031 21.646484 C 20.151308 21.21575 19.575771 20.999685 19 21 z M 45 21 C 44.424229 21.000315 43.848693 21.215711 43.417969 21.646484 L 34.646484 30.417969 C 34.089345 30.975122 33.897602 31.774875 34.060547 32.503906 C 34.149532 32.103493 34.340645 31.723816 34.646484 31.417969 L 43.417969 22.646484 C 43.848693 22.215711 44.424229 22.000315 45 22 C 45.575771 21.999685 46.151309 22.215751 46.582031 22.646484 L 55.353516 31.416016 C 55.658507 31.721008 55.850306 32.100533 55.939453 32.5 C 55.976254 32.335211 56 32.168314 56 32 C 56 31.423787 55.784247 30.846748 55.353516 30.416016 L 46.582031 21.646484 C 46.151309 21.215751 45.575771 20.999685 45 21 z M 32 35 C 31.423787 35 30.84675 35.215754 30.416016 35.646484 L 21.644531 44.417969 C 21.088909 44.973574 20.898876 45.769251 21.060547 46.496094 C 21.149748 46.098889 21.340683 45.721808 21.644531 45.417969 L 30.416016 36.646484 C 30.84675 36.215754 31.423787 36 32 36 C 32.576218 36 33.15325 36.215759 33.583984 36.646484 L 42.353516 45.417969 C 42.658431 45.722876 42.850387 46.10125 42.939453 46.5 C 43.102024 45.772174 42.910068 44.974507 42.353516 44.417969 L 33.583984 35.646484 C 33.15325 35.215759 32.576218 35 32 35 z"/>
 <path style="fill:#ffffff;opacity:0.1" d="M 32 2 C 30.428502 2 28.854421 2.5850604 27.679688 3.7597656 L 3.7597656 27.683594 C 2.4601409 28.983185 1.884343 30.765757 2.0234375 32.498047 C 2.1343066 31.098695 2.7099224 29.73341 3.7597656 28.683594 L 27.679688 4.7597656 C 28.854421 3.5850604 30.428502 3 32 3 C 33.5715 3 35.143625 3.5850606 36.318359 4.7597656 L 60.238281 28.683594 C 61.288124 29.733411 61.86495 31.099904 61.976562 32.5 C 62.114731 30.76679 61.537906 28.983186 60.238281 27.683594 L 36.318359 3.7597656 C 35.143625 2.5850606 33.5715 2 32 2 z"/>
</svg>
